src/topics/icons/zendesk.svg

<svg height="253" preserveAspectRatio="xMidYMid" viewBox="0 0 256 253" width="256" xmlns="http://www.w3.org/2000/svg"><g fill="#719c40"><path d="m225.851155 150.373343c-11.203546 6.290127-23.396106 9.280904-35.390864 9.280904-7.817164 0-15.555206-1.297586-22.090609-3.90067-11.947284 10.776293-24.804462 18.324445-31.276567 21.829509 9.375849 14.874766 24.282263 26.307763 42.701653 30.896787 5.696719 1.424179 11.417174 2.088796 17.026859 2.088796 12.596078 0 24.717429-3.449679 35.018995-8.996068 1.527037-5.886609 2.2866-11.939372 2.2866-18.055433 0-11.251019-2.690118-22.62072-8.276067-33.143825"/><path d="m211.253314 61.6706874c-2.120445 14.1468512-8.244418 26.7271047-16.821144 36.0871298.45099 2.4844018.759562 5.2061678.759562 8.0545268-.03956 16.544221-8.576726 30.936347-19.242249 42.519675 3.054074.379781 6.131885.593408 9.185959.593408 15.207074 0 30.532829-4.873859 43.500776-14.977623 14.977622-11.749482 23.989515-28.32535 26.592599-45.2256154-10.08794-13.268607-24.90732-22.7868743-41.419892-26.9407316-.854508-.1819786-1.637806-.5221992-2.508138-.6725293z"/><path d="m199.994383 49.5730726c0-19.0523588-7.50068-36.316581-19.24225-48.81771343h-1.020662c-16.852792 0-31.616788 5.98946662-45.004077 18.10290573 12.793881 13.6009156 17.390816 30.8493135 17.390816 48.0897993 0 1.3925312-.047472 2.7692382-.087033 4.1063847 2.88792-.7279141 5.799576-1.0760469 8.66376-1.0760469h.759562c11.005744.2215391 22.098521 5.6888065 28.459857 15.9903726 6.37716-10.6496989 10.080027-23.0717103 10.080027-36.395702"/><path d="m72.8467888 2.01338452c-1.0523105 0-2.0571483 0-2.4290175-.20571484-11.5121188 12.64355042-18.4273021 29.34601282-18.4273021 47.54386382 0 .2610996 0 .4826387-.0949454.6250566.7991231 0 1.6061582-.0237363 2.4290175-.0237363 19.3925795 0 37.1394403 7.7222185 49.7117817 20.152142 10.554754.7437382 21.354783 6.3455115 27.043589 17.4620248 3.054074-5.9736424 7.587713-10.3411266 12.374539-12.5723414 0-.7912109.031648-1.6219824.031648-2.4369296 0-19.4796127-8.062439-38.9117527-23.744239-52.7975043-13.482234-11.94728478-30.2242572-17.74686078-46.8950712-17.74686078"/><path d="m92.6191496 71.1019215c-10.5943142-6.1793572-22.763138-9.644861-35.5411943-9.644861-4.0984725 0-8.2760661.3560449-12.4061871 1.1076953-18.775435 3.3705585-34.4730595 13.8145425-44.6717682 27.549964 2.7692382 16.9952102 11.7494821 32.9934952 26.2523781 44.2998992 10.5943142-14.210148 25.4374309-23.388195 40.7790105-26.331499 0-.720002-.0316484-1.527037-.0316484-2.2866-.0316484-19.2501614 11.9314606-31.1737099 25.6194094-34.6945985"/><path d="m30.4932686 150.539497c-5.6096854 10.554754-8.2839782 21.845334-8.2839782 33.00932 0 6.67782.9415409 13.268607 2.397369 19.139392 10.2778298 5.633421 21.9007181 8.663759 33.9112998 8.663759 5.6729822 0 11.4250856-.680441 17.2246616-2.096709-1.7802246-6.41672-2.6426445-12.817617-2.6426445-19.17104 0-15.112129 4.7947382-29.615025 13.2923434-41.625606-8.189033-8.837826-15.1358648-19.297635-17.9921362-31.126238-15.7450972 5.831225-29.4567823 17.232574-37.9069149 33.207122"/><path d="m128.48474 252.637354c15.847955-6.851887 29.235244-19.43214 36.664714-36.284933-18.071257-7.484855-31.418985-21.536761-38.175927-37.756585-5.775839-2.982865-20.682253-11.33014-34.2673442-23.82336-5.1349588 9.961345-7.8646365 21.069946-7.8646365 32.400087 0 9.597388 1.9068183 19.360931 6.1477088 28.697219 7.7855154 17.446201 21.7582999 30.129312 37.4954849 36.767572"/></g></svg>

<?xml version="1.0" encoding="UTF-8" standalone="no"?>
<svg width="256px" height="253px" viewBox="0 0 256 253" version="1.1" xmlns="http://www.w3.org/2000/svg" xmlns:xlink="http://www.w3.org/1999/xlink" preserveAspectRatio="xMidYMid">
    <g fill="#719C40">
        <path d="M225.851155,150.373343 C214.647609,156.66347 202.455049,159.654247 190.460291,159.654247 C182.643127,159.654247 174.905085,158.356661 168.369682,155.753577 C156.422398,166.52987 143.56522,174.078022 137.093115,177.583086 C146.468964,192.457852 161.375378,203.890849 179.794768,208.479873 C185.491487,209.904052 191.211942,210.568669 196.821627,210.568669 C209.417705,210.568669 221.539056,207.11899 231.840622,201.572601 C233.367659,195.685992 234.127222,189.633229 234.127222,183.517168 C234.127222,172.266149 231.437104,160.896448 225.851155,150.373343"></path>
        <path d="M211.253314,61.6706874 C209.132869,75.8175386 203.008896,88.3977921 194.43217,97.7578172 C194.88316,100.242219 195.191732,102.963985 195.191732,105.812344 C195.152172,122.356565 186.615006,136.748691 175.949483,148.332019 C179.003557,148.7118 182.081368,148.925427 185.135442,148.925427 C200.342516,148.925427 215.668271,144.051568 228.636218,133.947804 C243.61384,122.198322 252.625733,105.622454 255.228817,88.7221886 C245.140877,75.4535816 230.321497,65.9353143 213.808925,61.781457 C212.954417,61.5994784 212.171119,61.2592578 211.300787,61.1089277 L211.253314,61.6706874"></path>
        <path d="M199.994383,49.5730726 C199.994383,30.5207138 192.493703,13.2564916 180.752133,0.755359169 L179.731471,0.755359169 C162.878679,0.755359169 148.114683,6.74482579 134.727394,18.8582649 C147.521275,32.4591805 152.11821,49.7075784 152.11821,66.9480642 C152.11821,68.3405954 152.070738,69.7173024 152.031177,71.0544489 C154.919097,70.3265348 157.830753,69.978402 160.694937,69.978402 L161.454499,69.978402 C172.460243,70.1999411 183.55302,75.6672085 189.914356,85.9687746 C196.291516,75.3190757 199.994383,62.8970643 199.994383,49.5730726"></path>
        <path d="M72.8467888,2.01338452 C71.7944783,2.01338452 70.7896405,2.01338452 70.4177713,1.80766968 C58.9056525,14.4512201 51.9904692,31.1536825 51.9904692,49.3515335 C51.9904692,49.6126331 51.9904692,49.8341722 51.8955238,49.9765901 C52.6946469,49.9765901 53.501682,49.9528538 54.3245413,49.9528538 C73.7171208,49.9528538 91.4639816,57.6750723 104.036323,70.1049958 C114.591077,70.848734 125.391106,76.4505073 131.079912,87.5670206 C134.133986,81.5933782 138.667625,77.225894 143.454451,74.9946792 C143.454451,74.2034683 143.486099,73.3726968 143.486099,72.5577496 C143.486099,53.0781369 135.42366,33.6459969 119.74186,19.7602453 C106.259626,7.81296052 89.5176028,2.01338452 72.8467888,2.01338452"></path>
        <path d="M92.6191496,71.1019215 C82.0248354,64.9225643 69.8560116,61.4570605 57.0779553,61.4570605 C52.9794828,61.4570605 48.8018892,61.8131054 44.6717682,62.5647558 C25.8963332,65.9353143 10.1987087,76.3792983 0,90.1147198 C2.7692382,107.10993 11.7494821,123.108215 26.2523781,134.414619 C36.8466923,120.204471 51.689809,111.026424 67.0313886,108.08312 C67.0313886,107.363118 66.9997402,106.556083 66.9997402,105.79652 C66.9680918,86.5463586 78.9312008,74.6228101 92.6191496,71.1019215"></path>
        <path d="M30.4932686,150.539497 C24.8835832,161.094251 22.2092904,172.384831 22.2092904,183.548817 C22.2092904,190.226637 23.1508313,196.817424 24.6066594,202.688209 C34.8844892,208.32163 46.5073775,211.351968 58.5179592,211.351968 C64.1909414,211.351968 69.9430448,210.671527 75.7426208,209.255259 C73.9623962,202.838539 73.0999763,196.437642 73.0999763,190.084219 C73.0999763,174.97209 77.8947145,160.469194 86.3923197,148.458613 C78.2032867,139.620787 71.2564549,129.160978 68.4001835,117.332375 C52.6550863,123.1636 38.9434012,134.564949 30.4932686,150.539497"></path>
        <path d="M128.48474,252.637354 C144.332695,245.785467 157.719984,233.205214 165.149454,216.352421 C147.078197,208.867566 133.730469,194.81566 126.973527,178.595836 C121.197688,175.612971 106.291274,167.265696 92.7061828,154.772476 C87.571224,164.733821 84.8415463,175.842422 84.8415463,187.172563 C84.8415463,196.769951 86.7483646,206.533494 90.9892551,215.869782 C98.7747705,233.315983 112.747555,245.999094 128.48474,252.637354"></path>
    </g>
</svg>
